X:1
T:Title
%%score { ( 1 3 ) | 2 }
L:1/8
M:4/4
K:G
V:1 treble nm="Grand Piano"
V:3 treble 
V:2 treble 
V:1
 z4 z2[Q:1/4=100] D2 | G2 G2 B2 B2 | d2 d2 B2 d2 | BBBA GG B2 | [FA]6 D2 | G2 G2 B2 B2 | %6
 d2 d2 B2 d2 | BBBG [FA][FA] [FA]2 |[M:3/4] G6 |[M:1/4] D2 |[M:4/4] GGGG GG B2 | G6 z2 | %12
 GGGG BB B2 | [Fd]6 d2 | e2 d2 B2 G2 | BBBA G2 d2 | BBBG [FA][FA] [FA]2 |[M:3/4] [DG]6 |] %18
V:2
 z4 z2 [G,B,]2 | [G,B,D]2 [G,B,D]2 [G,DG]2 [G,DG]2 | [G,B,G]2 [G,B,G]2 [G,DG]2 [G,B,G]2 | %3
 [G,DG][G,DG][G,DG][G,CD] [G,B,D][G,B,D] [G,DG]2 | [D,D]6 [F,C]2 | %5
 [G,B,D]2 [G,B,D]2 [G,DG]2 [G,DG]2 | [G,B,G]2 [G,B,G]2 [G,DG]2 [G,B,G]2 | %7
 [G,DG][G,DG][G,DG][K:bass][G,B,D] [D,C][D,C] [D,C]2 |[M:3/4] [G,B,D]6 |[M:1/4] [G,B,]2 | %10
[M:4/4][K:treble] [G,B,D][G,B,D][G,B,D][G,B,D] [G,B,D][G,B,D] [G,DG]2 | %11
 [G,B,D]2 [G,C]2 [G,B,]2 [G,B,]2 | [G,B,D][K:treble][G,B,D][G,B,D][G,B,D] [G,DG][G,DG] [G,DG]2 | %13
 [D,D]6 [G,B,G]2 | [G,CG]2 [G,B,G]2 [G,DG]2 [G,B,D]2 | [G,DG][G,DG][G,DG][G,CD] [G,B,D]2 [G,B,G]2 | %16
 [G,DG][G,DG][G,DG][K:bass][G,B,D] [D,C][D,C] [D,C]2 |[M:3/4] [G,B,]6 |] %18
V:3
 x8 | x8 | x8 | x8 | x8 | x8 | x8 | x8 |[M:3/4] x6 |[M:1/4] x2 |[M:4/4] x8 | z2 E2 D2 D2 | x8 | %13
 x8 | x8 | x8 | x8 |[M:3/4] x6 |] %18

